packages/components/src/components/icon/appstore/ic-appstore-wallet-card-placeholder-light-red-line.svg

<svg width="40" height="24" viewBox="0 0 40 24" fill="none" xmlns="http://www.w3.org/2000/svg">
<g clip-path="url(#clip0_2106_162031)">
<rect width="40" height="24" fill="white"/>
<g filter="url(#filter0_f_2106_162031)">
<circle cx="4" cy="12" r="12" fill="#CFCFCF"/>
</g>
<g filter="url(#filter1_f_2106_162031)">
<circle cx="40" cy="24" r="16" fill="#D6DADB"/>
</g>
</g>
<path d="M4 23.5C3.76561 23.5 3.53708 23.477 3.31639 23.4334L3.12232 24.4144C3.40659 24.4706 3.70011 24.5 4 24.5V23.5ZM2.0557 22.9108C1.6738 22.6551 1.3449 22.3262 1.08922 21.9443L0.258254 22.5006C0.586646 22.9911 1.00886 23.4134 1.49938 23.7417L2.0557 22.9108ZM0.56663 20.6836C0.52297 20.4629 0.5 20.2344 0.5 20H-0.5C-0.5 20.2999 -0.470594 20.5934 -0.414358 20.8777L0.56663 20.6836ZM0.5 20V19H-0.5V20H0.5ZM0.5 17V15H-0.5V17H0.5ZM0.5 13V11H-0.5V13H0.5ZM0.5 9V7H-0.5V9H0.5ZM0.5 5V4H-0.5V5H0.5ZM0.5 4C0.5 3.76561 0.52297 3.53708 0.56663 3.31639L-0.414358 3.12232C-0.470594 3.40658 -0.5 3.70011 -0.5 4H0.5ZM1.08922 2.0557C1.3449 1.6738 1.6738 1.3449 2.0557 1.08922L1.49938 0.258254C1.00886 0.586646 0.586646 1.00886 0.258254 1.49938L1.08922 2.0557ZM3.31639 0.56663C3.53708 0.52297 3.76561 0.5 4 0.5V-0.5C3.70011 -0.5 3.40658 -0.470594 3.12232 -0.414358L3.31639 0.56663ZM4 0.5H5V-0.5H4V0.5ZM7 0.5H9V-0.5H7V0.5ZM11 0.5H13V-0.5H11V0.5ZM15 0.5H17V-0.5H15V0.5ZM19 0.5H21V-0.5H19V0.5ZM23 0.5H25V-0.5H23V0.5ZM27 0.5H29V-0.5H27V0.5ZM31 0.5H33V-0.5H31V0.5ZM35 0.5H36V-0.5H35V0.5ZM36 0.5C36.2344 0.5 36.4629 0.52297 36.6836 0.56663L36.8777 -0.414358C36.5934 -0.470594 36.2999 -0.5 36 -0.5V0.5ZM37.9443 1.08922C38.3262 1.3449 38.6551 1.6738 38.9108 2.0557L39.7417 1.49938C39.4134 1.00886 38.9911 0.586647 38.5006 0.258255L37.9443 1.08922ZM39.4334 3.31639C39.477 3.53708 39.5 3.76561 39.5 4H40.5C40.5 3.70011 40.4706 3.40658 40.4144 3.12232L39.4334 3.31639ZM39.5 4V5H40.5V4H39.5ZM39.5 7V9H40.5V7H39.5ZM39.5 11V13H40.5V11H39.5ZM39.5 15V17H40.5V15H39.5ZM39.5 19V20H40.5V19H39.5ZM39.5 20C39.5 20.2344 39.477 20.4629 39.4334 20.6836L40.4144 20.8777C40.4706 20.5934 40.5 20.2999 40.5 20H39.5ZM38.9108 21.9443C38.6551 22.3262 38.3262 22.6551 37.9443 22.9108L38.5006 23.7417C38.9911 23.4134 39.4134 22.9911 39.7417 22.5006L38.9108 21.9443ZM36.6836 23.4334C36.4629 23.477 36.2344 23.5 36 23.5V24.5C36.2999 24.5 36.5934 24.4706 36.8777 24.4144L36.6836 23.4334ZM36 23.5H35V24.5H36V23.5ZM33 23.5H31V24.5H33V23.5ZM29 23.5H27V24.5H29V23.5ZM25 23.5H23V24.5H25V23.5ZM21 23.5H19V24.5H21V23.5ZM17 23.5H15V24.5H17V23.5ZM13 23.5H11V24.5H13V23.5ZM9 23.5H7V24.5H9V23.5ZM5 23.5H4V24.5H5V23.5ZM4 23C3.79836 23 3.60233 22.9802 3.41342 22.9429L3.02528 24.9049C3.34134 24.9674 3.66735 25 4 25V23ZM2.33386 22.4953C2.00627 22.276 1.72402 21.9937 1.50471 21.6661L-0.15723 22.7788C0.207522 23.3236 0.676392 23.7925 1.22122 24.1572L2.33386 22.4953ZM1.05712 20.5866C1.01975 20.3977 1 20.2016 1 20H-1C-1 20.3326 -0.967376 20.6587 -0.904852 20.9747L1.05712 20.5866ZM1 20V19H-1V20H1ZM1 17V15H-1V17H1ZM1 13V11H-1V13H1ZM1 9V7H-1V9H1ZM1 5V4H-1V5H1ZM1 4C1 3.79836 1.01975 3.60233 1.05712 3.41342L-0.904852 3.02528C-0.967376 3.34134 -1 3.66735 -1 4H1ZM1.50471 2.33386C1.72402 2.00627 2.00627 1.72402 2.33386 1.50471L1.22122 -0.15723C0.676392 0.207522 0.207522 0.676392 -0.15723 1.22122L1.50471 2.33386ZM3.41342 1.05712C3.60233 1.01975 3.79836 1 4 1V-1C3.66735 -1 3.34134 -0.967376 3.02528 -0.904852L3.41342 1.05712ZM4 1H5V-1H4V1ZM7 1H9V-1H7V1ZM11 1H13V-1H11V1ZM15 1H17V-1H15V1ZM19 1H21V-1H19V1ZM23 1H25V-1H23V1ZM27 1H29V-1H27V1ZM31 1H33V-1H31V1ZM35 1H36V-1H35V1ZM36 1C36.2016 1 36.3977 1.01975 36.5866 1.05712L36.9747 -0.904852C36.6587 -0.967376 36.3326 -1 36 -1V1ZM37.6661 1.50471C37.9937 1.72402 38.276 2.00627 38.4953 2.33386L40.1572 1.22122C39.7925 0.676393 39.3236 0.207522 38.7788 -0.15723L37.6661 1.50471ZM38.9429 3.41342C38.9802 3.60233 39 3.79836 39 4H41C41 3.66735 40.9674 3.34134 40.9049 3.02528L38.9429 3.41342ZM39 4V5H41V4H39ZM39 7V9H41V7H39ZM39 11V13H41V11H39ZM39 15V17H41V15H39ZM39 19V20H41V19H39ZM39 20C39 20.2016 38.9802 20.3977 38.9429 20.5866L40.9049 20.9747C40.9674 20.6587 41 20.3326 41 20H39ZM38.4953 21.6661C38.276 21.9937 37.9937 22.276 37.6661 22.4953L38.7788 24.1572C39.3236 23.7925 39.7925 23.3236 40.1572 22.7788L38.4953 21.6661ZM36.5866 22.9429C36.3977 22.9802 36.2016 23 36 23V25C36.3326 25 36.6587 24.9674 36.9747 24.9049L36.5866 22.9429ZM36 23H35V25H36V23ZM33 23H31V25H33V23ZM29 23H27V25H29V23ZM25 23H23V25H25V23ZM21 23H19V25H21V23ZM17 23H15V25H17V23ZM13 23H11V25H13V23ZM9 23H7V25H9V23ZM5 23H4V25H5V23Z" fill="#FF444F"/>
<defs>
<filter id="filter0_f_2106_162031" x="-40" y="-32" width="88" height="88" filterUnits="userSpaceOnUse" color-interpolation-filters="sRGB">
<feFlood flood-opacity="0" result="BackgroundImageFix"/>
<feBlend mode="normal" in="SourceGraphic" in2="BackgroundImageFix" result="shape"/>
<feGaussianBlur stdDeviation="16" result="effect1_foregroundBlur_2106_162031"/>
</filter>
<filter id="filter1_f_2106_162031" x="-8" y="-24" width="96" height="96" filterUnits="userSpaceOnUse" color-interpolation-filters="sRGB">
<feFlood flood-opacity="0" result="BackgroundImageFix"/>
<feBlend mode="normal" in="SourceGraphic" in2="BackgroundImageFix" result="shape"/>
<feGaussianBlur stdDeviation="16" result="effect1_foregroundBlur_2106_162031"/>
</filter>
<clipPath id="clip0_2106_162031">
<rect width="40" height="24" fill="white"/>
</clipPath>
</defs>
</svg>

<svg width="40" height="24" fill="none" xmlns="http://www.w3.org/2000/svg"><g clip-path="url(#a)"><path fill="#fff" d="M0 0h40v24H0z"/><g filter="url(#b)"><circle cx="4" cy="12" r="12" fill="#CFCFCF"/></g><g filter="url(#c)"><circle cx="40" cy="24" r="16" fill="#D6DADB"/></g></g><path d="M4 23.5c-.234 0-.463-.023-.684-.067l-.194.981c.285.057.578.086.878.086v-1zm-1.944-.59a3.522 3.522 0 0 1-.967-.966l-.83.557c.328.49.75.912 1.24 1.24l.557-.83zm-1.49-2.226A3.52 3.52 0 0 1 .5 20h-1c0 .3.03.593.086.878l.98-.194zM.5 20v-1h-1v1h1zm0-3v-2h-1v2h1zm0-4v-2h-1v2h1zm0-4V7h-1v2h1zm0-4V4h-1v1h1zm0-1c0-.234.023-.463.067-.684l-.981-.194A4.52 4.52 0 0 0-.5 4h1zm.59-1.944c.255-.382.584-.711.966-.967L1.499.26c-.49.328-.912.75-1.24 1.24l.83.557zM3.315.566C3.537.524 3.766.5 4 .5v-1c-.3 0-.593.03-.878.086l.194.98zM4 .5h1v-1H4v1zm3 0h2v-1H7v1zm4 0h2v-1h-2v1zm4 0h2v-1h-2v1zm4 0h2v-1h-2v1zm4 0h2v-1h-2v1zm4 0h2v-1h-2v1zm4 0h2v-1h-2v1zm4 0h1v-1h-1v1zm1 0c.234 0 .463.023.684.067l.194-.981A4.52 4.52 0 0 0 36-.5v1zm1.944.59c.382.255.711.584.967.966l.83-.557a4.52 4.52 0 0 0-1.24-1.24l-.557.83zm1.49 2.226c.043.221.066.45.066.684h1c0-.3-.03-.593-.086-.878l-.98.194zM39.5 4v1h1V4h-1zm0 3v2h1V7h-1zm0 4v2h1v-2h-1zm0 4v2h1v-2h-1zm0 4v1h1v-1h-1zm0 1c0 .234-.023.463-.067.684l.981.194c.057-.285.086-.578.086-.878h-1zm-.59 1.944c-.255.382-.584.711-.966.967l.557.83a4.52 4.52 0 0 0 1.24-1.24l-.83-.557zm-2.226 1.49c-.221.043-.45.066-.684.066v1c.3 0 .593-.03.878-.086l-.194-.98zM36 23.5h-1v1h1v-1zm-3 0h-2v1h2v-1zm-4 0h-2v1h2v-1zm-4 0h-2v1h2v-1zm-4 0h-2v1h2v-1zm-4 0h-2v1h2v-1zm-4 0h-2v1h2v-1zm-4 0H7v1h2v-1zm-4 0H4v1h1v-1zM4 23c-.202 0-.398-.02-.587-.057l-.388 1.962c.316.062.642.095.975.095v-2zm-1.666-.505a3.022 3.022 0 0 1-.83-.829L-.156 22.78a5.021 5.021 0 0 0 1.378 1.378l1.113-1.662zm-1.277-1.908A3.02 3.02 0 0 1 1 20h-2c0 .333.033.659.095.975l1.962-.388zM1 20v-1h-2v1h2zm0-3v-2h-2v2h2zm0-4v-2h-2v2h2zm0-4V7h-2v2h2zm0-4V4h-2v1h2zm0-1c0-.202.02-.398.057-.587l-1.962-.388A5.02 5.02 0 0 0-1 4h2zm.505-1.666c.219-.328.501-.61.829-.83L1.22-.156A5.022 5.022 0 0 0-.157 1.22l1.662 1.113zm1.908-1.277A3.02 3.02 0 0 1 4 1v-2a5.02 5.02 0 0 0-.975.095l.388 1.962zM4 1h1v-2H4v2zm3 0h2v-2H7v2zm4 0h2v-2h-2v2zm4 0h2v-2h-2v2zm4 0h2v-2h-2v2zm4 0h2v-2h-2v2zm4 0h2v-2h-2v2zm4 0h2v-2h-2v2zm4 0h1v-2h-1v2zm1 0c.202 0 .398.02.587.057l.388-1.962A5.02 5.02 0 0 0 36-1v2zm1.666.505c.328.219.61.501.83.829l1.661-1.113A5.021 5.021 0 0 0 38.78-.157l-1.113 1.662zm1.277 1.908c.037.19.057.385.057.587h2c0-.333-.033-.659-.095-.975l-1.962.388zM39 4v1h2V4h-2zm0 3v2h2V7h-2zm0 4v2h2v-2h-2zm0 4v2h2v-2h-2zm0 4v1h2v-1h-2zm0 1c0 .202-.02.398-.057.587l1.962.388c.062-.316.095-.642.095-.975h-2zm-.505 1.666c-.219.328-.501.61-.829.83l1.113 1.661a5.02 5.02 0 0 0 1.378-1.378l-1.662-1.113zm-1.908 1.277A3.026 3.026 0 0 1 36 23v2c.333 0 .659-.033.975-.095l-.388-1.962zM36 23h-1v2h1v-2zm-3 0h-2v2h2v-2zm-4 0h-2v2h2v-2zm-4 0h-2v2h2v-2zm-4 0h-2v2h2v-2zm-4 0h-2v2h2v-2zm-4 0h-2v2h2v-2zm-4 0H7v2h2v-2zm-4 0H4v2h1v-2z" fill="#FF444F"/><defs><filter id="b" x="-40" y="-32" width="88" height="88" filterUnits="userSpaceOnUse" color-interpolation-filters="sRGB"><feFlood flood-opacity="0" result="BackgroundImageFix"/><feBlend in="SourceGraphic" in2="BackgroundImageFix" result="shape"/><feGaussianBlur stdDeviation="16" result="effect1_foregroundBlur_2106_162031"/></filter><filter id="c" x="-8" y="-24" width="96" height="96" filterUnits="userSpaceOnUse" color-interpolation-filters="sRGB"><feFlood flood-opacity="0" result="BackgroundImageFix"/><feBlend in="SourceGraphic" in2="BackgroundImageFix" result="shape"/><feGaussianBlur stdDeviation="16" result="effect1_foregroundBlur_2106_162031"/></filter><clipPath id="a"><path fill="#fff" d="M0 0h40v24H0z"/></clipPath></defs></svg>
